packages/icons/src/components/ProductIcon/assets/next-servers.svg

<svg width="64" height="64" viewBox="0 0 64 64" fill="none" xmlns="http://www.w3.org/2000/svg">
<path d="M0 16C0 7.16344 7.16344 0 16 0H48C56.8366 0 64 7.16344 64 16V48C64 56.8366 56.8366 64 48 64H16C7.16344 64 0 56.8366 0 48V16Z" fill="#F1EEFC" className="fillWeak"/>
<path fill-rule="evenodd" clip-rule="evenodd" d="M48 2H16C8.26801 2 2 8.26801 2 16V48C2 55.732 8.26801 62 16 62H48C55.732 62 62 55.732 62 48V16C62 8.26801 55.732 2 48 2ZM16 0C7.16344 0 0 7.16344 0 16V48C0 56.8366 7.16344 64 16 64H48C56.8366 64 64 56.8366 64 48V16C64 7.16344 56.8366 0 48 0H16Z" fill="#F1EEFC" className="fillWeak"/>
<path d="M24.2628 19.3243C24.636 18.9172 25.2688 18.8896 25.6759 19.2628L31.6759 24.7628C31.8825 24.9522 32.0001 25.2198 32.0001 25.5001C32.0001 25.7804 31.8825 26.048 31.6759 26.2374L25.6759 31.7374C25.2688 32.1105 24.636 32.083 24.2628 31.6759C23.8896 31.2688 23.9172 30.636 24.3243 30.2628L29.5196 25.5001L24.3243 20.7374C23.9172 20.3642 23.8896 19.7314 24.2628 19.3243Z" fill="#A060F6" className="fillStrong"/>
<path d="M32.002 10C32.1876 10 32.3731 10.0042 32.5586 10.0117C32.6166 10.0141 32.6745 10.0184 32.7324 10.0215C32.8657 10.0286 32.9988 10.0369 33.1318 10.0479C33.1611 10.0503 33.1905 10.0521 33.2197 10.0547C33.2328 10.0559 33.2458 10.0579 33.2588 10.0596C35.0295 10.2224 36.7756 10.7293 38.4023 11.5791C38.4197 11.587 38.437 11.5955 38.4541 11.6045C38.4804 11.6184 38.506 11.6334 38.5322 11.6475C38.6327 11.7013 38.7325 11.757 38.832 11.8135C38.9001 11.852 38.9686 11.8899 39.0361 11.9297C39.1941 12.0228 39.3516 12.1189 39.5068 12.2188L50.8594 19.5215C50.9286 19.566 50.9965 19.6117 51.0635 19.6582C51.0882 19.6754 51.1123 19.6935 51.1367 19.7109C51.1785 19.7408 51.2198 19.7711 51.2607 19.8018C51.359 19.8755 51.4547 19.9513 51.5479 20.0293C51.5777 20.0542 51.6065 20.0801 51.6357 20.1055C51.658 20.1248 51.6811 20.1435 51.7031 20.1631C51.7199 20.1781 51.7354 20.1941 51.751 20.21C52.9458 21.2932 53.664 22.7237 53.9053 24.2275C53.9086 24.244 53.9134 24.2606 53.916 24.2773C53.9233 24.3247 53.9282 24.3724 53.9346 24.4199C53.9387 24.4512 53.9435 24.4824 53.9473 24.5137C53.9601 24.6209 53.9705 24.7283 53.9785 24.8359C53.9821 24.8841 53.9847 24.9323 53.9873 24.9805C53.9877 24.987 53.9879 24.9935 53.9883 25H54V39H53.9854C53.9849 39.0082 53.9838 39.0163 53.9834 39.0244C53.9777 39.13 53.9704 39.2355 53.96 39.3408C53.9571 39.3701 53.9544 39.3994 53.9512 39.4287C53.9449 39.485 53.9403 39.5415 53.9326 39.5977C53.928 39.6312 53.9218 39.6641 53.9141 39.6963C53.6917 41.1659 52.9978 42.5773 51.8252 43.6582C51.8071 43.6773 51.7894 43.697 51.7695 43.7148C51.7444 43.7375 51.718 43.7589 51.6924 43.7812C51.6634 43.8066 51.634 43.8315 51.6045 43.8564C51.5847 43.8731 51.5649 43.8898 51.5449 43.9062C51.4986 43.9444 51.4519 43.9824 51.4043 44.0195C51.3849 44.0347 51.3653 44.0495 51.3457 44.0645C51.3005 44.0989 51.2544 44.1324 51.208 44.166C51.1846 44.1829 51.1614 44.2001 51.1377 44.2168C51.116 44.2321 51.0943 44.2476 51.0723 44.2627C51.0266 44.2941 50.9812 44.326 50.9346 44.3564L46.1816 47.4609C46.1793 47.4625 46.1772 47.4643 46.1748 47.4658L40.5527 51.1367L40.5488 51.1406L39.6826 51.7061C39.5207 51.8118 39.3563 51.9123 39.1914 52.0107C39.1409 52.0409 39.0899 52.0701 39.0391 52.0996C38.9253 52.1656 38.8113 52.2304 38.6963 52.293C38.6664 52.3092 38.6374 52.3268 38.6074 52.3428C38.5909 52.3516 38.5735 52.3584 38.5566 52.3662C36.8992 53.2433 35.1142 53.767 33.3027 53.9365C33.2852 53.939 33.2678 53.9427 33.25 53.9443C33.2075 53.9482 33.1646 53.9487 33.1221 53.9521C33.0082 53.9613 32.8943 53.9692 32.7803 53.9756C32.709 53.9796 32.6378 53.9844 32.5664 53.9873C32.3777 53.995 32.1889 54 32 54C31.5829 54 31.1657 53.9816 30.75 53.9443C30.2 53.8949 29.7944 53.4084 29.8438 52.8584C29.8933 52.3086 30.3788 51.903 30.9287 51.9521C31.6137 52.0136 32.303 52.0137 32.9883 51.957C34.6201 51.822 36.231 51.352 37.7207 50.5459C38.0147 50.3868 38.305 50.2166 38.5889 50.0312L45.0811 45.791L45.083 45.7891L49.8408 42.6826C49.8645 42.6671 49.8868 42.6496 49.9102 42.6338C50.0818 42.5173 50.2421 42.3925 50.3916 42.2607C51.2957 41.4635 51.8192 40.3892 51.958 39.2617C51.9859 39.0354 52.0002 38.8071 51.9971 38.5791V38.4639L51.999 38.0898C51.999 38.0869 51.999 38.084 51.999 38.0811L52 37.9941V30.3057C51.9441 30.3618 51.8844 30.4143 51.8262 30.4688C51.8108 30.4849 51.796 30.5023 51.7793 30.5176C51.7581 30.5371 51.7354 30.555 51.7139 30.5742C51.6842 30.6008 51.6543 30.6272 51.624 30.6533C51.5349 30.7301 51.4436 30.8051 51.3496 30.8779C51.2193 30.979 51.0853 31.0777 50.9453 31.1709L46.1846 34.3379L46.1836 34.3398L39.6914 38.6602C39.5243 38.7714 39.354 38.8772 39.1836 38.9805C39.1576 38.9962 39.1315 39.0118 39.1055 39.0273C38.9701 39.1082 38.8335 39.1858 38.6963 39.2617C38.6699 39.2763 38.6446 39.2932 38.6182 39.3076C38.6026 39.3161 38.5861 39.3225 38.5703 39.3301C36.9087 40.2272 35.1179 40.7628 33.2998 40.9355C33.2846 40.9376 33.2693 40.941 33.2539 40.9424C33.2188 40.9456 33.1835 40.9463 33.1484 40.9492C33.0082 40.961 32.868 40.9701 32.7275 40.9775C32.6826 40.9799 32.6377 40.9834 32.5928 40.9854C32.3959 40.9939 32.199 41 32.002 41C31.9897 41 31.977 40.9985 31.9648 40.998C31.5582 40.997 31.1515 40.9795 30.7461 40.9424C30.1963 40.892 29.7917 40.4052 29.8418 39.8555C29.8923 39.3056 30.3788 38.9008 30.9287 38.9512C31.6138 39.0139 32.3029 39.0139 32.9883 38.9561C34.6214 38.8182 36.2346 38.3383 37.7266 37.5137C38.0165 37.3533 38.3029 37.1815 38.583 36.9951L39.4482 36.4189C39.453 36.4158 39.4581 36.4123 39.4629 36.4092L45.0752 32.6748L45.0801 32.6719L49.8369 29.5059C50.0337 29.3748 50.2149 29.2305 50.3838 29.0791C51.29 28.2658 51.8133 27.1692 51.957 26.0264C52.0143 25.5702 52.0107 25.1075 51.9473 24.6523C51.7876 23.5107 51.2494 22.4203 50.3311 21.6211C50.1597 21.4722 49.9754 21.3321 49.7764 21.2041L38.4248 13.9014C38.4182 13.8971 38.4109 13.8929 38.4043 13.8887C38.1349 13.7161 37.8601 13.556 37.582 13.4072C36.1195 12.6246 34.5449 12.1687 32.9521 12.0391C32.7197 12.0202 32.4869 12.0089 32.2539 12.0039C32.1699 12.0021 32.0859 12 32.002 12C31.9972 12 31.992 11.9991 31.9873 11.999C31.6435 11.9994 31.2997 12.0154 30.957 12.0459C30.4073 12.0946 29.9223 11.6884 29.873 11.1387C29.8242 10.5888 30.2304 10.1038 30.7803 10.0547C31.1867 10.0185 31.5944 9.99995 32.002 10Z" fill="#521094" className="fill"/>
<path d="M23.1611 49.7559C23.4632 49.2937 24.0826 49.1641 24.5449 49.4658L25.4111 50.0312C25.7132 50.2285 26.0215 50.4106 26.335 50.5781C26.822 50.8383 27.0062 51.4446 26.7461 51.9316C26.4859 52.4187 25.8796 52.6028 25.3926 52.3428C25.0275 52.1477 24.6685 51.9354 24.3174 51.7061L23.4512 51.1406C22.9889 50.8386 22.8592 50.2182 23.1611 49.7559Z" fill="#521094" className="fill"/>
<path d="M17.5352 46.082C17.8371 45.6198 18.4566 45.4893 18.9189 45.791L20.6504 46.9219C21.1127 47.2238 21.2423 47.8433 20.9404 48.3057C20.6385 48.768 20.019 48.8986 19.5566 48.5967L17.8252 47.4658C17.3631 47.1638 17.2333 46.5443 17.5352 46.082Z" fill="#521094" className="fill"/>
<path d="M12.1562 42.3027C12.5257 41.8925 13.158 41.8593 13.5684 42.2285C13.7486 42.3908 13.945 42.5433 14.1582 42.6826L15.0244 43.248C15.4865 43.5501 15.6164 44.1696 15.3145 44.6318C15.0124 45.0941 14.393 45.2238 13.9307 44.9219L13.0654 44.3564C12.7659 44.1608 12.4873 43.9461 12.2305 43.7148C11.8201 43.3453 11.7867 42.7131 12.1562 42.3027Z" fill="#521094" className="fill"/>
<path d="M11 37C11.5523 37 12 37.4477 12 38V38.4229C12.001 38.4394 12.0028 38.4559 12.0029 38.4727V38.5791C11.9995 38.829 12.015 39.0796 12.0488 39.3271C12.1234 39.8742 11.7404 40.3783 11.1934 40.4531C10.6462 40.5279 10.1422 40.1448 10.0674 39.5977C10.0403 39.3992 10.0229 39.1997 10.0127 39H10V38C10 37.4477 10.4477 37 11 37Z" fill="#521094" className="fill"/>
<path d="M23.165 36.6973C23.4711 36.2377 24.0921 36.113 24.5518 36.4189L25.417 36.9951C25.7182 37.1956 26.0254 37.3815 26.3379 37.5518C26.8228 37.816 27.0025 38.4232 26.7383 38.9082C26.474 39.3926 25.8666 39.5714 25.3818 39.3076C25.0176 39.1092 24.6589 38.8933 24.3086 38.6602L23.4434 38.084C22.9837 37.7781 22.8594 37.157 23.165 36.6973Z" fill="#521094" className="fill"/>
<path d="M17.5381 32.9531C17.8441 32.4933 18.465 32.3688 18.9248 32.6748L20.6562 33.8271C21.1155 34.1332 21.2401 34.7533 20.9346 35.2129C20.6286 35.6723 20.0075 35.7978 19.5479 35.4922L17.8164 34.3398C17.3568 34.034 17.2324 33.4129 17.5381 32.9531Z" fill="#521094" className="fill"/>
<path d="M11 31.5C11.5523 31.5 12 31.9477 12 32.5V34C12 34.5523 11.5523 35 11 35C10.4477 35 10 34.5523 10 34V32.5C10 31.9477 10.4477 31.5 11 31.5Z" fill="#521094" className="fill"/>
<path d="M33.2627 19.3242C33.6358 18.9172 34.2687 18.8896 34.6758 19.2627L40.6758 24.7627C40.8824 24.9521 41 25.2197 41 25.5C41 25.7803 40.8824 26.0479 40.6758 26.2373L34.6758 31.7373C34.2687 32.1105 33.6359 32.0829 33.2627 31.6758C32.8896 31.2687 32.9172 30.6358 33.3242 30.2627L38.5195 25.5L33.3242 20.7373C32.9172 20.3641 32.8896 19.7313 33.2627 19.3242Z" fill="#521094" className="fill"/>
<path d="M12.1602 29.1045C12.5336 28.6977 13.1663 28.6706 13.5732 29.0439C13.7536 29.2093 13.9501 29.3641 14.1631 29.5059L15.0293 30.082C15.489 30.388 15.6135 31.009 15.3076 31.4688C15.0016 31.9282 14.3805 32.0529 13.9209 31.7471L13.0557 31.1709C12.756 30.9715 12.4773 30.753 12.2207 30.5176C11.8139 30.1443 11.7871 29.5114 12.1602 29.1045Z" fill="#521094" className="fill"/>
<path d="M11.2236 23.4404C11.7695 23.5243 12.1444 24.0352 12.0605 24.5811C11.9837 25.0817 11.9801 25.5938 12.0498 26.0957C12.1256 26.6425 11.744 27.1485 11.1973 27.2246C10.6506 27.3005 10.1458 26.9185 10.0693 26.3721C9.97281 25.6778 9.97763 24.9701 10.084 24.2773C10.1678 23.7316 10.6779 23.3568 11.2236 23.4404Z" fill="#521094" className="fill"/>
<path d="M14.0146 18.96C14.479 18.6612 15.0976 18.7955 15.3965 19.2598C15.695 19.7242 15.5609 20.3428 15.0967 20.6416L14.2236 21.2041C14.0083 21.3426 13.8089 21.4944 13.626 21.6572C13.2135 22.0239 12.5809 21.9874 12.2139 21.5752C11.8468 21.1627 11.8846 20.5303 12.2969 20.1631C12.5571 19.9316 12.8389 19.7163 13.1416 19.5215L14.0146 18.96Z" fill="#521094" className="fill"/>
<path d="M19.6904 15.3086C20.1549 15.0098 20.7744 15.1439 21.0732 15.6084C21.3718 16.0728 21.2368 16.6915 20.7725 16.9902L19.0264 18.1143C18.5621 18.4127 17.9434 18.2784 17.6445 17.8145C17.3458 17.3501 17.4802 16.7315 17.9443 16.4326L19.6904 15.3086Z" fill="#521094" className="fill"/>
<path d="M25.5459 11.6045C26.0344 11.3468 26.6397 11.534 26.8975 12.0225C27.1546 12.5108 26.9676 13.1154 26.4795 13.373C26.1732 13.5346 25.871 13.7111 25.5752 13.9014L24.7021 14.4629C24.2379 14.7613 23.6191 14.6271 23.3203 14.1631C23.0216 13.6988 23.1561 13.0802 23.6201 12.7813L24.4932 12.2188C24.8372 11.9974 25.1889 11.7929 25.5459 11.6045Z" fill="#521094" className="fill"/>
</svg>

<svg xmlns="http://www.w3.org/2000/svg" width="64" height="64" fill="none" viewBox="0 0 64 64">
    <path fill="#f1eefc" d="M0 16C0 7.163 7.163 0 16 0h32c8.837 0 16 7.163 16 16v32c0 8.837-7.163 16-16 16H16C7.163 64 0 56.837 0 48z" className="fillWeak"/>
    <path fill="#f1eefc" fill-rule="evenodd" d="M48 2H16C8.268 2 2 8.268 2 16v32c0 7.732 6.268 14 14 14h32c7.732 0 14-6.268 14-14V16c0-7.732-6.268-14-14-14M16 0C7.163 0 0 7.163 0 16v32c0 8.837 7.163 16 16 16h32c8.837 0 16-7.163 16-16V16c0-8.837-7.163-16-16-16z" className="fillWeak" clip-rule="evenodd"/>
    <path fill="#a060f6" d="M24.263 19.324a1 1 0 0 1 1.413-.061l6 5.5a1 1 0 0 1 0 1.474l-6 5.5a1 1 0 0 1-1.352-1.474L29.52 25.5l-5.196-4.763a1 1 0 0 1-.061-1.413" className="fillStrong"/>
    <path fill="#521094" d="M32.002 10q.279 0 .557.012.087.004.173.01.2.01.4.026l.088.007q.02.001.039.005a13.8 13.8 0 0 1 5.195 1.544l.078.044q.15.08.3.165l.204.117q.238.14.47.289l11.353 7.303q.104.067.204.136l.074.053a7 7 0 0 1 .41.318l.089.076.067.058q.025.023.048.047a6.86 6.86 0 0 1 2.154 4.017l.011.05.019.143.012.094q.02.16.031.322l.01.145V25H54v14h-.015l-.002.024a7 7 0 0 1-.023.317l-.009.088-.018.169q-.007.05-.019.098a6.73 6.73 0 0 1-2.089 3.962q-.026.03-.056.057l-.077.066-.087.075-.06.05-.14.114-.06.044-.137.102-.07.05-.066.047q-.067.047-.137.093l-4.753 3.105-.007.005-5.622 3.67-.004.005-.866.565q-.244.158-.492.305l-.152.089q-.17.099-.343.193l-.089.05-.05.023a14 14 0 0 1-5.254 1.57q-.026.005-.053.008-.063.005-.128.008-.171.014-.342.024l-.214.011a14 14 0 0 1-1.816-.043 1 1 0 0 1 .179-1.992q1.03.092 2.06.005a12 12 0 0 0 4.732-1.411q.441-.239.868-.515l6.492-4.24.002-.002 4.758-3.106.07-.05q.256-.174.48-.372a4.75 4.75 0 0 0 1.567-3q.043-.34.04-.682v-.115l.001-.374v-.009l.001-.087v-7.688q-.086.082-.174.163l-.047.049q-.032.029-.065.056a6 6 0 0 1-.364.304q-.195.152-.405.293l-4.76 3.167-.001.002-6.493 4.32a14 14 0 0 1-.995.602l-.078.046-.048.022a13.8 13.8 0 0 1-5.27 1.605q-.022.005-.046.007l-.106.007q-.21.018-.42.029l-.135.007q-.296.014-.591.015l-.037-.002a14 14 0 0 1-1.219-.056 1 1 0 0 1 .183-1.99q1.03.092 2.06.004a11.85 11.85 0 0 0 4.738-1.442q.435-.24.856-.519l.865-.576.015-.01 5.612-3.734.005-.003 4.757-3.166a4.9 4.9 0 0 0 2.12-3.48 5.2 5.2 0 0 0-.01-1.374c-.16-1.141-.698-2.232-1.616-3.03a5 5 0 0 0-.555-.418l-11.351-7.303-.02-.012q-.406-.259-.823-.482a11.84 11.84 0 0 0-5.328-1.403Q32.128 12 32.002 12l-.015-.001q-.515 0-1.03.047a1 1 0 0 1-.177-1.991Q31.39 10 32.002 10m-8.841 39.756a1 1 0 0 1 1.384-.29l.866.565q.453.296.924.547a1 1 0 0 1-.942 1.765 14 14 0 0 1-1.076-.637l-.866-.565a1 1 0 0 1-.29-1.385m-5.626-3.674a1 1 0 0 1 1.384-.291l1.731 1.13a1 1 0 0 1-1.093 1.676l-1.732-1.131a1 1 0 0 1-.29-1.384m-5.379-3.779a1 1 0 0 1 1.412-.075q.27.245.59.455l.866.565a1 1 0 0 1-1.093 1.674l-.866-.566q-.45-.294-.835-.641a1 1 0 0 1-.074-1.412M11 37a1 1 0 0 1 1 1v.423l.003.05v.106q-.005.376.046.748a1 1 0 0 1-1.982.27 7 7 0 0 1-.054-.597H10v-1a1 1 0 0 1 1-1m12.165-.303a1 1 0 0 1 1.387-.278l.865.576q.452.301.92.557a1 1 0 1 1-.955 1.756 14 14 0 0 1-1.073-.648l-.866-.576a1 1 0 0 1-.278-1.387m-5.627-3.744a1 1 0 0 1 1.387-.278l1.731 1.152a1 1 0 0 1-1.108 1.665l-1.732-1.152a1 1 0 0 1-.278-1.387M11 31.5a1 1 0 0 1 1 1V34a1 1 0 1 1-2 0v-1.5a1 1 0 0 1 1-1" className="fill"/>
    <path fill="#521094" d="M33.263 19.324a1 1 0 0 1 1.413-.061l6 5.5a1 1 0 0 1 0 1.474l-6 5.5a1 1 0 0 1-1.352-1.474L38.52 25.5l-5.196-4.763a1 1 0 0 1-.061-1.413M12.16 29.105a1 1 0 0 1 1.413-.061q.27.248.59.462l.866.576a1 1 0 0 1-1.108 1.665l-.865-.576q-.45-.3-.835-.653a1 1 0 0 1-.06-1.413m-.937-5.665a1 1 0 0 1 .836 1.141c-.076.5-.08 1.013-.01 1.515a1.001 1.001 0 0 1-1.98.276 7.3 7.3 0 0 1 .014-2.095 1 1 0 0 1 1.14-.837m2.791-4.48a1 1 0 0 1 1.082 1.682l-.873.562q-.324.209-.598.453a1.001 1.001 0 0 1-1.33-1.494q.391-.348.846-.642zm5.675-3.651a1 1 0 0 1 1.082 1.681l-1.746 1.124a1 1 0 0 1-1.082-1.681zm5.856-3.704a1 1 0 0 1 .934 1.768q-.46.243-.905.528l-.873.562a1 1 0 0 1-1.082-1.682l.873-.562q.517-.332 1.053-.614" className="fill"/>
</svg>
